X: 20812
T: KATTY O LYNCH
Q: "Briskly"
%R: jig
B: "Edinburgh Repository of Music" v.2 p.81 #2
F: http://digital.nls.uk/special-collections-of-printed-music/pageturner.cfm?id=87776133
Z: 2015 John Chambers <jc:trillian.mit.edu>
M: 6/8
L: 1/8
K: D
f/e/ |\
dAA AFA | BGB A2f/e/ | dAA AFA | g2B A2f/e/ |\
dAA AFA | Bdg b2b | aba gfe | (e3 d2) :|
|: a |\
(f/g/).a.a (b2a) | (f/g/).a.a (b2a) | (f/g/)aa (f/g/)aa | e2f {a}gfe |\
(f/g/)aa (b2a) | (f/g/).a.a (b2a) | aba {b}agf | e3 d2 :|
